packages/rainbowkit/src/wallets/walletConnectors/compassWallet/compassWallet.svg

<svg width="28" height="28" viewBox="0 0 28 28" fill="none" xmlns="http://www.w3.org/2000/svg">
<g clip-path="url(#clip0_987_3105)">
<rect x="-0.000488281" y="-0.000244141" width="28" height="28" rx="4" fill="#0D233D"/>
<path d="M14.7918 8.87878C14.7918 9.41909 14.3538 9.8571 13.8135 9.8571C13.2732 9.8571 12.8352 9.41909 12.8352 8.87878C12.8352 8.33848 13.2732 7.90047 13.8135 7.90047C14.3538 7.90047 14.7918 8.33848 14.7918 8.87878Z" fill="white"/>
<path fill-rule="evenodd" clip-rule="evenodd" d="M16.6819 4.69806C15.4398 2.43398 12.1872 2.43398 10.9451 4.69806L9.19073 7.89598C8.89118 8.442 8.442 8.89118 7.89598 9.19073L4.69806 10.9451C2.43398 12.1872 2.43398 15.4398 4.69806 16.6819L7.89598 18.4363C8.442 18.7359 8.89118 19.1851 9.19073 19.7311L10.9451 22.929C12.1872 25.1931 15.4398 25.1931 16.6819 22.929L18.4363 19.7311C18.7359 19.1851 19.1851 18.7359 19.7311 18.4363L22.929 16.6819C25.1931 15.4398 25.1931 12.1872 22.929 10.9451L19.7311 9.19073C19.1851 8.89118 18.7359 8.442 18.4363 7.89598L16.6819 4.69806ZM15.3674 7.05278C14.8317 5.60499 12.7839 5.60499 12.2482 7.05277L11.1088 10.132C10.9404 10.5871 10.5815 10.946 10.1263 11.1144L7.04714 12.2538C5.59936 12.7896 5.59936 14.8373 7.04714 15.373L10.1263 16.5124C10.5815 16.6809 10.9404 17.0397 11.1088 17.4949L12.2482 20.5741C12.7839 22.0219 14.8317 22.0219 15.3674 20.5741L16.5068 17.4949C16.6752 17.0397 17.0341 16.6809 17.4893 16.5124L20.5685 15.373C22.0162 14.8373 22.0162 12.7896 20.5685 12.2538L17.4893 11.1144C17.0341 10.946 16.6752 10.5871 16.5068 10.132L15.3674 7.05278Z" fill="white"/>
<g filter="url(#filter0_f_987_3105)">
<path d="M31.6267 -10.6003C31.6267 -10.1052 31.2253 -9.70375 30.7301 -9.70375C30.235 -9.70375 29.8336 -10.1052 29.8336 -10.6003C29.8336 -11.0955 30.235 -11.4969 30.7301 -11.4969C31.2253 -11.4969 31.6267 -11.0955 31.6267 -10.6003Z" fill="#2989FC"/>
<path fill-rule="evenodd" clip-rule="evenodd" d="M33.3588 -14.4316C32.2205 -16.5065 29.2398 -16.5065 28.1015 -14.4316L26.4937 -11.501C26.2192 -11.0006 25.8075 -10.589 25.3071 -10.3144L22.3765 -8.70664C20.3016 -7.56834 20.3016 -4.5876 22.3765 -3.4493L25.3071 -1.8415C25.8075 -1.56698 26.2192 -1.15534 26.4937 -0.654953L28.1015 2.27571C29.2398 4.35057 32.2205 4.35058 33.3588 2.27571L34.9666 -0.654953C35.2411 -1.15534 35.6528 -1.56698 36.1532 -1.8415L39.0838 -3.4493C41.1587 -4.58759 41.1587 -7.56834 39.0838 -8.70663L36.1532 -10.3144C35.6528 -10.589 35.2411 -11.0006 34.9666 -11.501L33.3588 -14.4316ZM32.1541 -12.2737C31.6632 -13.6005 29.7866 -13.6005 29.2956 -12.2737L28.2515 -9.45187C28.0971 -9.03473 27.7682 -8.70584 27.3511 -8.55149L24.5292 -7.50731C23.2024 -7.01635 23.2024 -5.13976 24.5292 -4.64881L27.3511 -3.60463C27.7682 -3.45027 28.0971 -3.12139 28.2515 -2.70425L29.2956 0.117601C29.7866 1.44439 31.6632 1.44439 32.1541 0.117602L33.1983 -2.70425C33.3527 -3.12139 33.6816 -3.45027 34.0987 -3.60463L36.9205 -4.64881C38.2473 -5.13976 38.2473 -7.01635 36.9205 -7.50731L34.0987 -8.55149C33.6816 -8.70584 33.3527 -9.03473 33.1983 -9.45186L32.1541 -12.2737Z" fill="#2989FC"/>
</g>
<g filter="url(#filter1_f_987_3105)">
<path d="M31.6267 -10.6003C31.6267 -10.1052 31.2253 -9.70375 30.7301 -9.70375C30.235 -9.70375 29.8336 -10.1052 29.8336 -10.6003C29.8336 -11.0955 30.235 -11.4969 30.7301 -11.4969C31.2253 -11.4969 31.6267 -11.0955 31.6267 -10.6003Z" fill="#2989FC"/>
<path fill-rule="evenodd" clip-rule="evenodd" d="M33.3588 -14.4316C32.2205 -16.5065 29.2398 -16.5065 28.1015 -14.4316L26.4937 -11.501C26.2192 -11.0006 25.8075 -10.589 25.3071 -10.3144L22.3765 -8.70664C20.3016 -7.56834 20.3016 -4.5876 22.3765 -3.4493L25.3071 -1.8415C25.8075 -1.56698 26.2192 -1.15534 26.4937 -0.654953L28.1015 2.27571C29.2398 4.35057 32.2205 4.35058 33.3588 2.27571L34.9666 -0.654953C35.2411 -1.15534 35.6528 -1.56698 36.1532 -1.8415L39.0838 -3.4493C41.1587 -4.58759 41.1587 -7.56834 39.0838 -8.70663L36.1532 -10.3144C35.6528 -10.589 35.2411 -11.0006 34.9666 -11.501L33.3588 -14.4316ZM32.1541 -12.2737C31.6632 -13.6005 29.7866 -13.6005 29.2956 -12.2737L28.2515 -9.45187C28.0971 -9.03473 27.7682 -8.70584 27.3511 -8.55149L24.5292 -7.50731C23.2024 -7.01635 23.2024 -5.13976 24.5292 -4.64881L27.3511 -3.60463C27.7682 -3.45027 28.0971 -3.12139 28.2515 -2.70425L29.2956 0.117601C29.7866 1.44439 31.6632 1.44439 32.1541 0.117602L33.1983 -2.70425C33.3527 -3.12139 33.6816 -3.45027 34.0987 -3.60463L36.9205 -4.64881C38.2473 -5.13976 38.2473 -7.01635 36.9205 -7.50731L34.0987 -8.55149C33.6816 -8.70584 33.3527 -9.03473 33.1983 -9.45186L32.1541 -12.2737Z" fill="#2989FC"/>
</g>
<g filter="url(#filter2_f_987_3105)">
<path d="M31.6267 -10.6003C31.6267 -10.1052 31.2253 -9.70375 30.7301 -9.70375C30.235 -9.70375 29.8336 -10.1052 29.8336 -10.6003C29.8336 -11.0955 30.235 -11.4969 30.7301 -11.4969C31.2253 -11.4969 31.6267 -11.0955 31.6267 -10.6003Z" fill="#2989FC"/>
<path fill-rule="evenodd" clip-rule="evenodd" d="M33.3588 -14.4316C32.2205 -16.5065 29.2398 -16.5065 28.1015 -14.4316L26.4937 -11.501C26.2192 -11.0006 25.8075 -10.589 25.3071 -10.3144L22.3765 -8.70664C20.3016 -7.56834 20.3016 -4.5876 22.3765 -3.4493L25.3071 -1.8415C25.8075 -1.56698 26.2192 -1.15534 26.4937 -0.654953L28.1015 2.27571C29.2398 4.35057 32.2205 4.35058 33.3588 2.27571L34.9666 -0.654953C35.2411 -1.15534 35.6528 -1.56698 36.1532 -1.8415L39.0838 -3.4493C41.1587 -4.58759 41.1587 -7.56834 39.0838 -8.70663L36.1532 -10.3144C35.6528 -10.589 35.2411 -11.0006 34.9666 -11.501L33.3588 -14.4316ZM32.1541 -12.2737C31.6632 -13.6005 29.7866 -13.6005 29.2956 -12.2737L28.2515 -9.45187C28.0971 -9.03473 27.7682 -8.70584 27.3511 -8.55149L24.5292 -7.50731C23.2024 -7.01635 23.2024 -5.13976 24.5292 -4.64881L27.3511 -3.60463C27.7682 -3.45027 28.0971 -3.12139 28.2515 -2.70425L29.2956 0.117601C29.7866 1.44439 31.6632 1.44439 32.1541 0.117602L33.1983 -2.70425C33.3527 -3.12139 33.6816 -3.45027 34.0987 -3.60463L36.9205 -4.64881C38.2473 -5.13976 38.2473 -7.01635 36.9205 -7.50731L34.0987 -8.55149C33.6816 -8.70584 33.3527 -9.03473 33.1983 -9.45186L32.1541 -12.2737Z" fill="#2989FC"/>
</g>
</g>
<defs>
<filter id="filter0_f_987_3105" x="0.535412" y="-36.2727" width="60.3896" height="60.3895" filterUnits="userSpaceOnUse" color-interpolation-filters="sRGB">
<feFlood flood-opacity="0" result="BackgroundImageFix"/>
<feBlend mode="normal" in="SourceGraphic" in2="BackgroundImageFix" result="shape"/>
<feGaussianBlur stdDeviation="10.1425" result="effect1_foregroundBlur_987_3105"/>
</filter>
<filter id="filter1_f_987_3105" x="0.535412" y="-36.2727" width="60.3896" height="60.3895" filterUnits="userSpaceOnUse" color-interpolation-filters="sRGB">
<feFlood flood-opacity="0" result="BackgroundImageFix"/>
<feBlend mode="normal" in="SourceGraphic" in2="BackgroundImageFix" result="shape"/>
<feGaussianBlur stdDeviation="10.1425" result="effect1_foregroundBlur_987_3105"/>
</filter>
<filter id="filter2_f_987_3105" x="0.535412" y="-36.2727" width="60.3896" height="60.3895" filterUnits="userSpaceOnUse" color-interpolation-filters="sRGB">
<feFlood flood-opacity="0" result="BackgroundImageFix"/>
<feBlend mode="normal" in="SourceGraphic" in2="BackgroundImageFix" result="shape"/>
<feGaussianBlur stdDeviation="10.1425" result="effect1_foregroundBlur_987_3105"/>
</filter>
<clipPath id="clip0_987_3105">
<rect x="-0.000488281" y="-0.000244141" width="28" height="28" rx="4" fill="white"/>
</clipPath>
</defs>
</svg>

<svg xmlns="http://www.w3.org/2000/svg" width="28" height="28" fill="none"><g clip-path="url(#a)"><rect width="28" height="28" fill="#0D233D" rx="4"/><path fill="#fff" d="M14.792 8.879a.978.978 0 1 1-1.957 0 .978.978 0 0 1 1.957 0"/><path fill="#fff" fill-rule="evenodd" d="M16.682 4.698c-1.242-2.264-4.495-2.264-5.737 0L9.191 7.896c-.3.546-.749.995-1.295 1.295l-3.198 1.754c-2.264 1.242-2.264 4.495 0 5.737l3.198 1.754c.546.3.995.75 1.295 1.295l1.754 3.198c1.242 2.264 4.495 2.264 5.737 0l1.754-3.198c.3-.546.75-.995 1.295-1.295l3.198-1.754c2.264-1.242 2.264-4.495 0-5.737l-3.198-1.754a3.27 3.27 0 0 1-1.295-1.295zm-1.315 2.355c-.535-1.448-2.583-1.448-3.119 0l-1.14 3.079a1.66 1.66 0 0 1-.982.982l-3.079 1.14c-1.448.536-1.448 2.583 0 3.119l3.08 1.14c.454.168.813.527.982.982l1.14 3.08c.535 1.447 2.583 1.447 3.118 0l1.14-3.08c.168-.455.527-.814.982-.983l3.08-1.139c1.447-.536 1.447-2.583 0-3.12l-3.08-1.139a1.66 1.66 0 0 1-.982-.982z" clip-rule="evenodd"/><g fill="#2989FC" filter="url(#b)"><path d="M31.627-10.6a.897.897 0 1 1-1.793 0 .897.897 0 0 1 1.793 0"/><path fill-rule="evenodd" d="M33.359-14.432c-1.139-2.074-4.12-2.074-5.257 0L26.494-11.5c-.275.5-.686.912-1.187 1.187l-2.93 1.607c-2.075 1.139-2.075 4.12 0 5.258l2.93 1.608c.5.274.912.686 1.187 1.186l1.608 2.93c1.138 2.076 4.119 2.076 5.257 0l1.608-2.93c.274-.5.686-.912 1.186-1.186l2.93-1.608c2.076-1.139 2.076-4.12 0-5.258l-2.93-1.607a3 3 0 0 1-1.186-1.187zm-1.205 2.158c-.49-1.327-2.367-1.327-2.858 0l-1.044 2.822a1.52 1.52 0 0 1-.9.9l-2.823 1.045c-1.327.49-1.327 2.367 0 2.858l2.822 1.044c.417.155.746.484.9.9L29.297.119c.49 1.326 2.367 1.326 2.858 0l1.044-2.822c.155-.417.484-.746.9-.9L36.92-4.65c1.327-.49 1.327-2.367 0-2.858L34.1-8.551a1.52 1.52 0 0 1-.9-.9z" clip-rule="evenodd"/></g><g fill="#2989FC" filter="url(#c)"><path d="M31.627-10.6a.897.897 0 1 1-1.793 0 .897.897 0 0 1 1.793 0"/><path fill-rule="evenodd" d="M33.359-14.432c-1.139-2.074-4.12-2.074-5.257 0L26.494-11.5c-.275.5-.686.912-1.187 1.187l-2.93 1.607c-2.075 1.139-2.075 4.12 0 5.258l2.93 1.608c.5.274.912.686 1.187 1.186l1.608 2.93c1.138 2.076 4.119 2.076 5.257 0l1.608-2.93c.274-.5.686-.912 1.186-1.186l2.93-1.608c2.076-1.139 2.076-4.12 0-5.258l-2.93-1.607a3 3 0 0 1-1.186-1.187zm-1.205 2.158c-.49-1.327-2.367-1.327-2.858 0l-1.044 2.822a1.52 1.52 0 0 1-.9.9l-2.823 1.045c-1.327.49-1.327 2.367 0 2.858l2.822 1.044c.417.155.746.484.9.9L29.297.119c.49 1.326 2.367 1.326 2.858 0l1.044-2.822c.155-.417.484-.746.9-.9L36.92-4.65c1.327-.49 1.327-2.367 0-2.858L34.1-8.551a1.52 1.52 0 0 1-.9-.9z" clip-rule="evenodd"/></g><g fill="#2989FC" filter="url(#d)"><path d="M31.627-10.6a.897.897 0 1 1-1.793 0 .897.897 0 0 1 1.793 0"/><path fill-rule="evenodd" d="M33.359-14.432c-1.139-2.074-4.12-2.074-5.257 0L26.494-11.5c-.275.5-.686.912-1.187 1.187l-2.93 1.607c-2.075 1.139-2.075 4.12 0 5.258l2.93 1.608c.5.274.912.686 1.187 1.186l1.608 2.93c1.138 2.076 4.119 2.076 5.257 0l1.608-2.93c.274-.5.686-.912 1.186-1.186l2.93-1.608c2.076-1.139 2.076-4.12 0-5.258l-2.93-1.607a3 3 0 0 1-1.186-1.187zm-1.205 2.158c-.49-1.327-2.367-1.327-2.858 0l-1.044 2.822a1.52 1.52 0 0 1-.9.9l-2.823 1.045c-1.327.49-1.327 2.367 0 2.858l2.822 1.044c.417.155.746.484.9.9L29.297.119c.49 1.326 2.367 1.326 2.858 0l1.044-2.822c.155-.417.484-.746.9-.9L36.92-4.65c1.327-.49 1.327-2.367 0-2.858L34.1-8.551a1.52 1.52 0 0 1-.9-.9z" clip-rule="evenodd"/></g></g><defs><filter id="b" width="60.39" height="60.389" x=".535" y="-36.273" color-interpolation-filters="sRGB" filterUnits="userSpaceOnUse"><feFlood flood-opacity="0" result="BackgroundImageFix"/><feBlend in="SourceGraphic" in2="BackgroundImageFix" result="shape"/><feGaussianBlur result="effect1_foregroundBlur_987_3105" stdDeviation="10.143"/></filter><filter id="c" width="60.39" height="60.389" x=".535" y="-36.273" color-interpolation-filters="sRGB" filterUnits="userSpaceOnUse"><feFlood flood-opacity="0" result="BackgroundImageFix"/><feBlend in="SourceGraphic" in2="BackgroundImageFix" result="shape"/><feGaussianBlur result="effect1_foregroundBlur_987_3105" stdDeviation="10.143"/></filter><filter id="d" width="60.39" height="60.389" x=".535" y="-36.273" color-interpolation-filters="sRGB" filterUnits="userSpaceOnUse"><feFlood flood-opacity="0" result="BackgroundImageFix"/><feBlend in="SourceGraphic" in2="BackgroundImageFix" result="shape"/><feGaussianBlur result="effect1_foregroundBlur_987_3105" stdDeviation="10.143"/></filter><clipPath id="a"><rect width="28" height="28" fill="#fff" rx="4"/></clipPath></defs></svg>
